!!!COM: Fe/licien David
!!!CNT: Francais
!!!TXO: Francais
!!!OTL: Oubli!
!!!LYR: Marc Constantin
!!!ENC: Jacob Pegg
!!!YOR: Romantic French Song 1830-1870, David Tunley, ed., New York: Garland Publishing, Inc., 1995
!!!ODT: 1845/
!!NB: Vocal melody and text only encoded.
!!NB: Only first strophe encoded.
**kern	**silbe
*clef G2	*
*k[b-]	*
*M2/4	*
=8	=8
{4a	{Le
8.f	chant
16g	du
=9	=9
4a	pa^-
4ff	-tre
=10	=10
4ff	re-
4ee	-ten-
=11	=11
2dd}	-tit,}
=12	=12
{4ff	{Dans
8.a	le
16b-	si-
=13	=13
4cc	-len-
4dd	-ce
=14	=14
4.cc	de
8b-	la
=15	=15
2a}	nuit,}
=16	=16
{4cc	{Et
8.e	pour-
16f	-tant
=17	=17
4dd	cel-
4cc	-le
=18	=18
4.b-	que
8cc	j'a-
=19	=19
4b-	-do-
4a}	-re}
=20	=20
{4cc	{He/-
8e	-las!
8f	n'ar-
=21	=21
4dd	-ri-
4cc	-ve
=22	=22
4.b-	pas
8cc	en-
=23	=23
4b-	-co-
4a	-re
=24	=24
4a	Re-
8cc	-di-
8cc	-re aux
=25	=25
4bn	e/-
4dd	-chos
=26	=26
4.cc	d'al-
8bn	-len~
=27	=27
2a}	~tour}
=28	=28
{4a	{Chants
8cc	de
8cc	prin-
=29	=29
4bn	-temps
4dd	et
=30	=30
4.cc#	chants
8bn	d'a-
=31	=31
([2a	-mour,
=32	=32
2a_	|
=33	=33
2a_	|
=34	=34
2a_	|
=35	=35
2a])}	|}
=36	=36
{4a	{chants
8bn	de
8cc#	prin-
=37	=37
4dd	-temps
4ff	et
=38	=38
4.ee	chants
8dd	d'a-
=39	=39
2dd}	-mour!}
*-	*-
